src/standard/reminder.svg

<svg xmlns="http://www.w3.org/2000/svg" viewBox="0 0 36 36">
  <path d="M29 23.375A1.377 1.377 0 0 1 27.625 22v-4a9.639 9.639 0 0 0-7.735-9.436A1.871 1.871 0 0 0 20.625 7a2.625 2.625 0 0 0-5.25 0 1.871 1.871 0 0 0 .735 1.564A9.639 9.639 0 0 0 8.375 18v4A1.377 1.377 0 0 1 7 23.375a.625.625 0 0 0-.625.625v3a.625.625 0 0 0 .625.625h7.407a3.554 3.554 0 0 0-.032.375 3.625 3.625 0 0 0 7.25 0 3.555 3.555 0 0 0-.03-.375H29a.625.625 0 0 0 .625-.625v-3a.625.625 0 0 0-.625-.625ZM18 5.625A1.375 1.375 0 1 1 16.625 7 1.377 1.377 0 0 1 18 5.625ZM20.375 28a2.375 2.375 0 0 1-4.75 0 2.331 2.331 0 0 1 .048-.375h4.664a2.325 2.325 0 0 1 .038.375Zm8-1.625H7.625V24.55a2.631 2.631 0 0 0 2-2.55v-4a8.375 8.375 0 0 1 16.75 0v4a2.631 2.631 0 0 0 2 2.55Z"/>
</svg>

<svg id="b765cc8e-263e-4e43-b278-525d92e2c292" data-name="Layer 1" xmlns="http://www.w3.org/2000/svg" viewBox="0 0 36 36">
  <title>Reminder icon - Black</title>
<desc>alert, bell, navigate, important, information, shapes and signage</desc>
<metadata><?xpacket begin="﻿" id="W5M0MpCehiHzreSzNTczkc9d"?>
<x:xmpmeta xmlns:x="adobe:ns:meta/" x:xmptk="Adobe XMP Core 8.0-c001 1.000000, 0000/00/00-00:00:00        ">
   <rdf:RDF xmlns:rdf="http://www.w3.org/1999/02/22-rdf-syntax-ns#">
      <rdf:Description rdf:about=""
            xmlns:xmp="http://ns.adobe.com/xap/1.0/"
            xmlns:dc="http://purl.org/dc/elements/1.1/"
            xmlns:cq="http://www.day.com/jcr/cq/1.0"
            xmlns:tiff="http://ns.adobe.com/tiff/1.0/">
         <xmp:rhcc-effective-on>2023-12-08T17:38:16.957Z</xmp:rhcc-effective-on>
         <xmp:rhcc-metadata-complete-moderator>pending</xmp:rhcc-metadata-complete-moderator>
         <xmp:rhcc-translation-id>TRA7cab2247-efc3-442e-9fb5-719990ea4782</xmp:rhcc-translation-id>
         <xmp:brand-content-type>Icon</xmp:brand-content-type>
         <xmp:CreateDate>2023-12-08T17:38:16.957Z</xmp:CreateDate>
         <xmp:rhcc-effective-on-set-on-upload>true</xmp:rhcc-effective-on-set-on-upload>
         <xmp:rhcc-metadata-complete-uploader>pending</xmp:rhcc-metadata-complete-uploader>
         <xmp:rhcc-file-last-modified>2023-12-08T17:40:54.952Z</xmp:rhcc-file-last-modified>
         <xmp:rhcc-audience>rhcc-audience:internal</xmp:rhcc-audience>
         <xmp:rhcc-rights-restricted>no</xmp:rhcc-rights-restricted>
         <xmp:brand-content-subtype>Icon</xmp:brand-content-subtype>
         <xmp:rhcc-derivative-id>DER7cab2247-efc3-442e-9fb5-719990ea4782</xmp:rhcc-derivative-id>
         <xmp:brand-logo-color>Black</xmp:brand-logo-color>
         <xmp:rhcc-notify-portal-subscribers-on-change>yes</xmp:rhcc-notify-portal-subscribers-on-change>
         <dc:format>image/svg+xml</dc:format>
         <dc:modified>2024-02-09T20:28:34.140Z</dc:modified>
         <dc:title>
            <rdf:Alt>
               <rdf:li xml:lang="x-default">Reminder icon - Black</rdf:li>
            </rdf:Alt>
         </dc:title>
         <dc:description>
            <rdf:Alt>
               <rdf:li xml:lang="x-default">alert, bell, navigate, important, information, shapes and signage</rdf:li>
            </rdf:Alt>
         </dc:description>
         <cq:lastReplicationAction_scene7>Activate</cq:lastReplicationAction_scene7>
         <cq:lastReplicationAction_publish>Activate</cq:lastReplicationAction_publish>
         <cq:lastReplicated_publish>2024-02-09T22:15:26.277Z</cq:lastReplicated_publish>
         <cq:lastReplicatedBy>workflow-process-service</cq:lastReplicatedBy>
         <cq:lastReplicationAction>Activate</cq:lastReplicationAction>
         <cq:lastReplicatedBy_publish>workflow-process-service</cq:lastReplicatedBy_publish>
         <cq:isDelivered>true</cq:isDelivered>
         <cq:lastReplicated>2024-02-09T22:15:26.277Z</cq:lastReplicated>
         <cq:lastReplicatedBy_scene7>workflow-process-service</cq:lastReplicatedBy_scene7>
         <cq:lastReplicated_scene7>2024-02-09T22:15:26.277Z</cq:lastReplicated_scene7>
         <tiff:ImageLength>36</tiff:ImageLength>
         <tiff:ImageWidth>36</tiff:ImageWidth>
      </rdf:Description>
   </rdf:RDF>
</x:xmpmeta>
                                                                                                    
                                                                                                    
                                                                                                    
                                                                                                    
                                                                                                    
                                                                                                    
                                                                                                    
                                                                                                    
                                                                                                    
                                                                                                    
                                 
<?xpacket end="w"?></metadata>
<path d="M29,23.375A1.377,1.377,0,0,1,27.625,22V18A9.639,9.639,0,0,0,19.89,8.564,1.871,1.871,0,0,0,20.625,7a2.625,2.625,0,0,0-5.25,0,1.871,1.871,0,0,0,.735,1.564A9.639,9.639,0,0,0,8.375,18v4A1.377,1.377,0,0,1,7,23.375.625.625,0,0,0,6.375,24v3A.625.625,0,0,0,7,27.625h7.407a3.554,3.554,0,0,0-.032.375,3.625,3.625,0,0,0,7.25,0,3.555,3.555,0,0,0-.03-.375H29A.625.625,0,0,0,29.625,27V24A.625.625,0,0,0,29,23.375ZM18,5.625A1.375,1.375,0,1,1,16.625,7,1.377,1.377,0,0,1,18,5.625ZM20.375,28a2.375,2.375,0,0,1-4.75,0,2.331,2.331,0,0,1,.048-.375h4.664A2.325,2.325,0,0,1,20.375,28Zm8-1.625H7.625V24.55a2.631,2.631,0,0,0,2-2.55V18a8.375,8.375,0,0,1,16.75,0v4a2.631,2.631,0,0,0,2,2.55Z"/>
</svg>
